icons/shield-flash-fill.svg

<svg xmlns="http://www.w3.org/2000/svg" width="24" height="24" fill="none"><g clip-path="url(#a)"><g><path fill="#121212" d="M3.783 2.826L12 1L20.217 2.826C20.4391 2.87536 20.6377 2.99897 20.78 3.1764C20.9224 3.35384 21 3.57452 21 3.802V13.789C20.9999 14.7767 20.756 15.7492 20.2899 16.62C19.8238 17.4908 19.1499 18.2331 18.328 18.781L12 23L5.672 18.781C4.85027 18.2332 4.17646 17.4911 3.71035 16.6205C3.24424 15.7498 3.00024 14.7776 3 13.79V3.802C3.00004 3.57452 3.07764 3.35384 3.21999 3.1764C3.36234 2.99897 3.56094 2.87536 3.783 2.826ZM13 10V5L8 12H11V17L16 10H13Z"/></g></g><defs><clipPath id="a"><rect width="24" height="24" fill="white"/></clipPath></defs></svg>

<svg width="24" height="24" fill="none" xmlns="http://www.w3.org/2000/svg"><g clip-path="url(#a)"><path d="M3.783 2.826 12 1l8.217 1.826a1 1 0 0 1 .783.976v9.987a6 6 0 0 1-2.672 4.992L12 23l-6.328-4.219A6 6 0 0 1 3 13.79V3.802a1 1 0 0 1 .783-.976ZM13 10V5l-5 7h3v5l5-7h-3Z" /></g><defs><clipPath id="a"><path fill="#fff" d="M0 0h24v24H0z"/></clipPath></defs></svg>
